img/buy-img-2.svg

<svg width="223" height="42" viewBox="0 0 223 42" fill="none" xmlns="http://www.w3.org/2000/svg">
<path d="M119 35V7H136V13.5034H126.089V35H119Z" fill="#E30613"/>
<path d="M157.828 35V24.0338H147.172V35H140V7H147.172V17.4494H157.828V7H165V35H157.828Z" fill="#E30613"/>
<path d="M207.387 35V13.5034H199V7H223V13.5034H214.572V35H207.387Z" fill="#E30613"/>
<path d="M187.996 35V19.0419L176.853 35H171V7H178V22.7921L188.956 7H195V35H187.996Z" fill="#E30613"/>
<path d="M77.7445 35V18.3597L70.5 27.1506L63.2558 18.3597V35H56V7H63.1608L70.5 16.6278L77.8394 7H85V35H77.7445Z" fill="#E30613"/>
<path d="M98.0749 25.1548H104.811L101.443 16.3744L98.0749 25.1548ZM108.589 35L107.072 31.0764H95.8031L94.2858 35H87L98.1471 7H104.849L116 35H108.589Z" fill="#E30613"/>
<path d="M0 12.9856C0.00693133 9.54316 1.31484 6.24385 3.63735 3.81004C5.95985 1.37622 9.10772 0.00622489 12.3917 0H41V6.60077H12.3992C10.7856 6.608 9.23993 7.28288 8.09854 8.4786C6.95717 9.6743 6.31239 11.2941 6.30451 12.9856L6.26704 24.0668C6.13647 25.4865 5.56101 26.8208 4.63051 27.8618C3.70003 28.9024 2.46693 29.5907 1.1238 29.8194L0 30V12.9856Z" fill="#E30613"/>
<path d="M0 42V35.399H28.6056C30.2195 35.3909 31.765 34.715 32.9062 33.5188C34.0473 32.3224 34.692 30.7022 34.6998 29.0105V18.4947C34.7077 16.9691 35.2327 15.4961 36.1809 14.3388C37.1292 13.1814 38.4389 12.4151 39.8763 12.1767L41 12V29.0105C40.993 32.4533 39.6854 35.753 37.3631 38.1874C35.041 40.6218 31.8934 41.9926 28.6093 42H0Z" fill="#E30613"/>
<path d="M24.1586 30V21.3609L20.5 26.088L16.8451 21.3609V30H12V13H16.5879L20.5 18.4666L24.4121 13H29V30H24.1586Z" fill="#E30613"/>
</svg>

<svg width="223" height="42" viewBox="0 0 223 42" fill="none" xmlns="http://www.w3.org/2000/svg"><path d="M119 35V7h17v6.503h-9.911V35H119zm38.828 0V24.034h-10.656V35H140V7h7.172v10.45h10.656V7H165v28h-7.172zm49.559 0V13.503H199V7h24v6.503h-8.428V35h-7.185zm-19.391 0V19.042L176.853 35H171V7h7v15.792L188.956 7H195v28h-7.004zM77.745 35V18.36L70.5 27.15l-7.244-8.79V35H56V7h7.16l7.34 9.628L77.84 7H85v28h-7.255zm20.33-9.845h6.736l-3.368-8.78-3.368 8.78zM108.589 35l-1.517-3.924H95.803L94.286 35H87L98.147 7h6.702L116 35h-7.411zM0 12.986C.007 9.543 1.315 6.244 3.637 3.81 5.96 1.376 9.107.006 12.392 0H41v6.6H12.4c-1.614.008-3.16.683-4.301 1.879a6.575 6.575 0 00-1.794 4.507l-.038 11.08a6.603 6.603 0 01-1.636 3.796 6.078 6.078 0 01-3.507 1.957L0 30V12.986zM0 42v-6.601h28.606c1.613-.008 3.159-.684 4.3-1.88A6.58 6.58 0 0034.7 29.01V18.495a6.617 6.617 0 011.48-4.156 6.069 6.069 0 013.696-2.162L41 12v17.01c-.007 3.443-1.315 6.743-3.637 9.177-2.322 2.435-5.47 3.806-8.754 3.813H0z" fill="#E30613"/><path d="M24.159 30v-8.64L20.5 26.089l-3.655-4.727V30H12V13h4.588l3.912 5.467L24.412 13H29v17h-4.841z" fill="#E30613"/></svg>
